X:0696
T:Mrs. Edwards of Woodend's Jig.
M:6/8
L:1/8
Q:3/8=120
I: :: (1) :| (2) ||
Z:Jack Campin * www.campin.me.uk * 2009
K:D
 B|AFD DFD|(d/c/B/c/d) AFD|GBG FAF|BGE E2
 B|AFD DFA|(d/c/B/c/d) AFD|BGB EFG|AFD D2:|
 g|f2d dfd| BdB        AFD|GBG FAF|BGE E2g|
[1 f2d dfd| BdB        AFD|BGB EFG|AFD D2:|
[2 afa geg| fdf        ecA|Bcd efg|fdd d2|]
<end>
<start>
